X: 83
P: Longways for &c.
M: 6/4
L: 1/4
K: G
V: 1
c |\
|: c |\
|: g |\
fef gdB | gdB G2g | f>ef gdB | AFD D2g |\
fef gdB | def gdB | cac  BaB | AFD D2 :|
V: 2 clef=bass middle=d
g2f e2c | B2g e2c | g2f e2c | G3- G2c |\
g2f e2c | B2g e2c | g3  a2g | d3- d2 :|
|: c |\
g3 z3 | G3 zzc | g3- g2G | d3 f3 |\
g3 z3 | G3 B2c | B2g a2g | d3- d2 :|
|: e |\
d3 g3 | zzg G3 | d3 f3 | d3- d2e |\
d3 g3 | d2c B2g | a3 g3 | d3- d2 :|

